icon-themes/sifr_svg/cmd/32/insertreferencefield.svg

<svg viewBox="0 0 32 32" xmlns="http://www.w3.org/2000/svg"><g fill="#555753"><path d="m2 2v3h13v-3zm3 5c-.5522847 0-1 .4477153-1 1v15c0 .554.4460373.993571 1 1h5l-2 3v1h2l4-5-4-5h-2v1l2 3h-4v-14c0-.5522847-.4477153-1-1-1zm10 15v3h15v-3z"/><path d="m17 2v3h13v-3zm-4 5v3h17v-3zm0 5v3h17v-3zm0 5v3h16.482422v-3zm0 10v3h17v-3z" opacity=".35"/></g></svg>

<svg xmlns="http://www.w3.org/2000/svg" viewBox="0 0 32 32">
  <path
     style="fill:#555753"
     d="M 2,2 V 5 H 15 V 2 Z M 5,7 C 4.4477153,7 4,7.4477153 4,8 v 15 c 0,0.554 0.4460373,0.993571 1,1 h 5 l -2,3 v 1 h 2 l 4,-5 -4,-5 H 8 v 1 l 2,3 H 6 V 8 C 6,7.4477153 5.5522847,7 5,7 Z m 10,15 v 3 h 15 v -3 z"
     />
  <path
     style="fill:#555753;opacity:0.35"
     d="M 17 2 L 17 5 L 30 5 L 30 2 L 17 2 z M 13 7 L 13 10 L 30 10 L 30 7 L 13 7 z M 13 12 L 13 15 L 30 15 L 30 12 L 13 12 z M 13 17 L 13 20 L 29.482422 20 L 29.482422 17 L 13 17 z M 13 27 L 13 30 L 30 30 L 30 27 L 13 27 z "
     />
</svg>
